!!!COM: Schubert, Franz Peter
!!!CDT: 1797-1828
!!!OTL: Das Rosenband
!!!SCT: DV 280
!!!YOR: Franz Schubert: Selected songs
!!!PPE: Max Friedlaender
!!!PSR: C.F. Peters 
!!!PSP: Frankfurt, London, New York
!!!PSD: n.d.
!!!PPG: pp.6-7
!!!ODT: 1815///
!!!ONB: Leading and trailing bars of rest have been deleted.
**kern
*M2/2
*MM[Maessig, lieblich]
*A-:
*k[b-e-a-d-]
4ee-
=1
4ee-
4cc
4b-
4dd-
=2
4cc
4b-
4a-
8r
8a-
=3
4ff
4dd-
4cc
4ee-
=4
4dd-
4cc
(8cc
8b-)
8b-
8b-
=5
4.ee-
8bn
4cc
4cc
=6
2dd-
2cc
=7
2b-
4r
4f
=8
2b-
2cc
=9
4.dd-
8dd-
4ee-
4een
=10
4ff
4ee-
4dd-
4cc
=11
4b-
4bn
4.cc
8a-
=12
2cc
4b-
4cc
=13
2ee-
2an
=14
2.b-
4cc
=15
2dd-
2g
=16
2a-
4r
4ee-
=17
4ee-
4cc
4b-
4dd-
=18
4cc
4b-
4a-
8r
8a-
=19
4ff
4dd-
4cc
4ee-
=20
4.dd-
8cc
(8cc
8b-)
8b-
8b-
=21
4.ee-
8bn
4cc
4cc
=22
2dd-
2cc
=23
2b-
4r
4f
=24
2b-
2cc
=25
4.dd-
8dd-
4ee-
4een
=26
4ff
4ee-
4dd-
4cc
=27
4b-
4bn
4.cc
8a-
=28
2cc
4b-
4cc
=29
2ee-
2an
=30
2.b-
4cc
=31
2dd-
2g
=32
2a-
2r
==
*-
!!!ENC: David Huron
!!!EMD: Paul von Hippel updated this file in the following ways (1998/9/2,21-22/):
!!!EMD:  (1) changed the representation of slurs from curly braces to parentheses 
!!!EMD:  (2) changed freeform comments into reference records and tandem interpretations
!!!EMD:  (3) changed final barline from quadruple (====) to double (==)
!!!EMD:  (4) added key signatures, key designations, and tempi
!!!EEV: Version 2.0
